src/dsmComponents/Icons/close-clear-16px.svg

<svg width="14" height="14" xmlns="http://www.w3.org/2000/svg" xmlns:xlink="http://www.w3.org/1999/xlink"><defs><path d="M13.7.3c-.4-.4-1-.4-1.4 0L7 5.6 1.7.3C1.3-.1.7-.1.3.3c-.4.4-.4 1 0 1.4L5.6 7 .3 12.3c-.4.4-.4 1 0 1.4.2.2.4.3.7.3.3 0 .5-.1.7-.3L7 8.4l5.3 5.3c.2.2.5.3.7.3.2 0 .5-.1.7-.3.4-.4.4-1 0-1.4L8.4 7l5.3-5.3c.4-.4.4-1 0-1.4z" id="close-clear-16px_svg__a"/></defs><use fill="#737373" xlink:href="#close-clear-16px_svg__a" fill-rule="evenodd"/></svg>

<?xml version="1.0" encoding="UTF-8"?>
<svg width="14px" height="14px" viewBox="0 0 14 14" version="1.1" xmlns="http://www.w3.org/2000/svg" xmlns:xlink="http://www.w3.org/1999/xlink">
    <!-- Generator: Sketch 59.1 (86144) - https://sketch.com -->
    <title>close-clear-16px</title>
    <desc>Created with Sketch.</desc>
    <defs>
        <path d="M13.7,0.3 C13.3,-0.1 12.7,-0.1 12.3,0.3 L7,5.6 L1.7,0.3 C1.3,-0.1 0.7,-0.1 0.3,0.3 C-0.1,0.7 -0.1,1.3 0.3,1.7 L5.6,7 L0.3,12.3 C-0.1,12.7 -0.1,13.3 0.3,13.7 C0.5,13.9 0.7,14 1,14 C1.3,14 1.5,13.9 1.7,13.7 L7,8.4 L12.3,13.7 C12.5,13.9 12.8,14 13,14 C13.2,14 13.5,13.9 13.7,13.7 C14.1,13.3 14.1,12.7 13.7,12.3 L8.4,7 L13.7,1.7 C14.1,1.3 14.1,0.7 13.7,0.3 Z" id="path-1"></path>
    </defs>
    <g id="Final" stroke="none" stroke-width="1" fill="none" fill-rule="evenodd">
        <g id="All-Nucleo-Icons" transform="translate(-320.000000, -1951.000000)">
            <g id="Solo/Nucleo/16px/close-clear" transform="translate(315.000000, 1946.000000)">
                <g id="e-remove" transform="translate(5.000000, 5.000000)">
                    <g id="Colour/Default-Colour">
                        <mask id="mask-2" fill="white">
                            <use xlink:href="#path-1"></use>
                        </mask>
                        <g id="Mask" fill-rule="nonzero"></g>
                        <g id="colour/neutral/chia" mask="url(#mask-2)" fill="#737373">
                            <g transform="translate(-25.000000, -26.000000)" id="Colour">
                                <rect x="0" y="0" width="64" height="64"></rect>
                            </g>
                        </g>
                    </g>
                </g>
            </g>
        </g>
    </g>
</svg>
